src/icons/svgs/24/chevron-right.svg

<svg width="24" height="24" viewBox="0 0 24 24" fill="none" xmlns="http://www.w3.org/2000/svg">
<path d="M9.60063 3.30924L16.7051 11.2883C16.9139 11.5555 17 11.806 17 12.019C17 12.2319 16.9139 12.5188 16.7405 12.7117L9.63602 20.6907C9.28091 21.0913 8.6916 21.1043 8.32066 20.7207C7.9472 20.3397 7.93506 19.7032 8.29277 19.3049L14.779 12.019L8.26044 4.69545C7.90274 4.29879 7.91488 3.6608 8.28834 3.27959C8.65777 2.89588 9.24754 2.90841 9.60063 3.30924Z" fill="black"/>
</svg>

<svg width="24" height="24" viewBox="0 0 24 24" xmlns="http://www.w3.org/2000/svg">
    <path d="m9.6 3.31 7.105 7.978c.209.268.295.518.295.731 0 .213-.086.5-.26.693L9.637 20.69a.883.883 0 0 1-1.315.03 1.051 1.051 0 0 1-.028-1.416l6.486-7.286-6.52-7.323a1.051 1.051 0 0 1 .028-1.415.879.879 0 0 1 1.313.03z"/>
</svg>
